X:51
T:Polska
T:efter Pelle Fors
R:Polska
O:Vikbolandet, Östergötland
S:efter Pelle Fors
B:Låtar efter Pelle Fors
Z:Björn Ek 2009-01-10
M:3/4
L:1/16
K:Dm
%
|:A4 d3e/d/ ^c2d2|e2=f2 d2e2 ^c2A2-|AGA=B (=cd)cB (GD)GB|(de)d^c A8:|
%
|:A4 {/A}f4 (e"^#"c)eg|g2a2 (a_b)af d2e2|e2f2 f2gf (e"^#"c)eg|
g2a2 (a_b)af d2e2|e2f2 Tf2e2 A3^c|^c2d2 [Dd]8:|
%

